!!!COM: Mozart, Wolfgang Amadeus
!!!CDT: 1756/1/27/-1791/12/5/
!!!OTL: String Quartet No. 1 in G Major
!!!OMD: Rondo: Allegro
!!!OMV: Mvmt. 4
!!!SCT: K 80
!!!SCA: Chronologisch-thematisches Verzeichnis sämtlicher Tonwerke Wolfgang Amade Mozarts (L. von Köchel; 1862, 2/1905, 3/1937, 1947)
!!!YOR: Breitkopf & Härtel Edition
!!!ENC: Edmund Correia, Jr.
!!!OCY: Österreich
!!!YEC: Copyright (c) 1994, 2000 Center for Computer Assisted Research in the Humanities
!!!YEM: Rights to all derivative editions reserved.
!!!YEM: Refer to licensing agreement for further details.
!!!YEN: United States of America
**kern	**dynam	**kern	**dynam	**kern	**dynam	**kern	**dynam
*I:Violoncello	*I:Violoncello	*I:Viola	*I:Viola	*I:Violino II	*I:Violino II	*I:Violino I	*I:Violino I
*>[A,A,B,B,C,C,D]	*	*>[A,A,B,B,C,C,D]	*	*>[A,A,B,B,C,C,D]	*	*>[A,A,B,B,C,C,D]	*
*>A	*	*>A	*	*>A	*	*>A	*
*clefF4	*	*clefC3	*	*clefG2	*	*clefG2	*
*k[f#]	*	*k[f#]	*	*k[f#]	*	*k[f#]	*
*G:	*	*G:	*	*G:	*	*G:	*
*M4/4	*	*M4/4	*	*M4/4	*	*M4/4	*
4G\	p	4B/	p	2r	.	4dd\	p
4G\	.	4B/	.	.	.	4dd\	.
2ryy	.	2ryy	.	2ryy	.	2ryy	.
=1	=1	=1	=1	=1	=1	=1	=1
!	!	! 16cP/	!	!	!	! 16eeP/	!
2G\	.	4Bp/	.	2r	.	4ddp\	.
.	.	8A/L	.	.	.	8cc\L	.
.	.	8G/J	.	.	.	8b\J	.
4C/	.	4c\	.	4g/	p	4ee\	.
4C/	.	4c\	.	4g/	.	4ee\	.
=2	=2	=2	=2	=2	=2	=2	=2
!	!	!	!	! 16aP/	!	!	!
2C/	.	2c\	.	4gp/	.	2ee\	.
.	.	.	.	8f#/L	.	.	.
.	.	.	.	8e/J	.	.	.
4AA/	.	4e\	.	4a/	.	4cc\	.
4AA/	.	4e\	.	4a/	.	4cc\	.
=3	=3	=3	=3	=3	=3	=3	=3
!	!	! 16f#P/	!	!	!	! 16ddP/	!
2AA/	.	4ep\	.	2a/	.	4ccp\	.
.	.	8d\L	.	.	.	8b/L	.
.	.	8c\J	.	.	.	8a/J	.
4D\	.	4F#/	.	4c/	.	4a/	.
4D\	.	4F#/	.	4c/	.	4a/	.
=4	=4	=4	=4	=4	=4	=4	=4
!	!	!	!	! 16dP/	!	! 16bP/	!
2D\	.	2F#/	.	4cp/	.	4ap/	.
.	.	.	.	8B/L	.	8g/L	.
.	.	.	.	8A/J	.	8f#/J	.
4G\	f	4B/	f	4G/	f	4dd\	f
4G\	.	4B/	.	4G/	.	4dd\	.
=5	=5	=5	=5	=5	=5	=5	=5
!	!	! 16cP/	!	!	!	! 16eeP/	!
2G\	.	4Bp/	.	2G/	.	4ddp\	.
.	.	8A/L	.	.	.	8cc\L	.
.	.	8G/J	.	.	.	8b\J	.
2r	.	4g\	.	8cc\L	.	8ee\L	.
.	.	.	.	8b\	.	8dd\	.
.	.	4r	.	8cc\	.	8ee\	.
.	.	.	.	8a\J	.	8ff#\J	.
=6	=6	=6	=6	=6	=6	=6	=6
1r	.	1r	.	8b/L	.	8gg\L	.
.	.	.	.	8a/	.	8ff#\	.
.	.	.	.	8b/	.	8gg\	.
.	.	.	.	8f#/J	.	8aa\J	.
.	.	.	.	8g/L	.	8bb\L	.
.	.	.	.	8f#/	.	8aa\	.
.	.	.	.	8g/	.	8bb\	.
.	.	.	.	8a/J	.	8ccc\J	.
=7	=7	=7	=7	=7	=7	=7	=7
2r	.	2r	.	4b\	.	4ddd\	.
.	.	.	.	4r	.	4r	.
2D\	.	2cT\	.	2f#t/	.	2aT/	.
=8	=8	=8	=8	=8	=8	=8	=8
4GG/	.	4B/	.	4g/	.	4g/	.
4r	.	4r	.	4r	.	4r	.
=:!!:	=:!!:	=:!!:	=:!!:	=:!!:	=:!!:	=:!!:	=:!!:
*>B	*	*>B	*	*>B	*	*>B	*
2r	.	2r	.	4e/	.	4gg\	.
.	.	.	.	8f#/L	.	8aa\L	.
.	.	.	.	8g/J	.	8bb\J	.
2ryy	.	2ryy	.	2ryy	.	2ryy	.
=9	=9	=9	=9	=9	=9	=9	=9
!	!	!	!	! 16gP/	!	! 16bbP/	!
2A\	.	2A/	.	4f#p/	.	4aap\	.
.	.	.	.	8b/L	.	8gg\L	.
.	.	.	.	8a/J	.	8ff#\J	.
!	!	!	!	! 16aP/	!	! 16ff#P/	!
2AA/	.	2A/	.	4gp/	.	4eep\	.
.	.	.	.	8f#/L	.	8dd\L	.
.	.	.	.	8e/J	.	8cc#\J	.
=10	=10	=10	=10	=10	=10	=10	=10
4D\	.	4A/	.	(8g/L	.	(8ee\L	.
.	.	.	.	8f#/)	.	8dd\)	.
4r	.	4r	.	(8d/	.	(8ff#\	.
.	.	.	.	8c#/J)	.	8ee\J)	.
2r	.	2r	.	(8e/L	.	(8gg\L	.
.	.	.	.	8d/)	.	8ff#\)	.
.	.	.	.	(8f#/	.	(8aa\	.
.	.	.	.	8e/J)	.	8gg\J)	.
=11	=11	=11	=11	=11	=11	=11	=11
(2D\	.	(2.d\	.	(8g/L	.	(8bb\L	.
.	.	.	.	8f#/)	.	8aa\)	.
.	.	.	.	8e'/	.	8gg'\	.
.	.	.	.	8d'/J	.	8ff#'\J	.
2GG/)	.	.	.	(4b\	.	(8ff#\L	.
.	.	.	.	.	.	8ee\)	.
.	.	4b\)	.	4g/)	.	8gg'\	.
.	.	.	.	.	.	8bb'\J	.
=12	=12	=12	=12	=12	=12	=12	=12
2AA/	.	2a\	.	(4f#/	.	(4dd\	.
.	.	.	.	4e/)	.	4cc#\)	.
2r	.	2r	.	4e/	.	4gg\	.
.	.	.	.	8f#/L	.	8aa\L	.
.	.	.	.	8g/J	.	8bb\J	.
=13	=13	=13	=13	=13	=13	=13	=13
!	!	!	!	! 16gP/	!	! 16bbP/	!
2A\	.	2A/	.	4f#p/	.	4aap\	.
.	.	.	.	8b/L	.	8gg\L	.
.	.	.	.	8a/J	.	8ff#\J	.
!	!	!	!	! 16aP/	!	! 16ff#P/	!
2AA/	.	2A/	.	4gp/	.	4eep\	.
.	.	.	.	8f#/L	.	8dd\L	.
.	.	.	.	8e/J	.	8cc#\J	.
=14	=14	=14	=14	=14	=14	=14	=14
2D\	.	2A/	.	(8g/L	.	(8ee\L	.
.	.	.	.	8f#/)	.	8dd\)	.
.	.	.	.	(8d/	.	(8ff#\	.
.	.	.	.	8c#/J)	.	8ee\J)	.
2r	.	2r	.	(8e/L	.	(8gg\L	.
.	.	.	.	8d/)	.	8ff#\)	.
.	.	.	.	(8f#/	.	(8aa\	.
.	.	.	.	8e/J)	.	8gg\J)	.
=15	=15	=15	=15	=15	=15	=15	=15
!	!	!	!	! 16gP/	!	! 16bbP/	!
(2d\	.	4r	.	4f#p/	.	4aap\	.
.	.	4d\	.	8b/L	.	8gg\L	.
.	.	.	.	8a/J	.	8ff#\J	.
!	!	!	!	! 16aP/	!	! 16ff#P/	!
2A\)	.	4a\	.	4gp/	.	4eep\	.
.	.	4A/	.	8f#/L	.	8dd\L	.
.	.	.	.	8e/J	.	8cc#\J	.
=16	=16	=16	=16	=16	=16	=16	=16
2D\	.	2A/	.	2f#/	.	2dd\	.
2r	.	2r	.	2r	.	4d/	p
.	.	.	.	.	.	8d/L	.
.	.	.	.	.	.	8d/J	.
=17	=17	=17	=17	=17	=17	=17	=17
4G#\	p	4r	.	4r	.	(4fn/	.
4r	.	4B/	p	4d/	p	4e/)	.
4E\	.	4r	.	4r	.	4e/	.
4r	.	4G#/	.	4d/	.	8e/L	.
.	.	.	.	.	.	8e/J	.
=18	=18	=18	=18	=18	=18	=18	=18
4A\	.	4r	.	4r	.	(4e/	.
4r	.	4A/	.	4cn/	.	4A/)	.
4Gn\	.	4r	.	4r	.	4c/	.
4r	.	4A/	.	4e/	.	8c/L	.
.	.	.	.	.	.	8c/J	.
=19	=19	=19	=19	=19	=19	=19	=19
4F#\	.	4r	.	4r	.	(4e-/	.
4r	.	4A/	.	4c/	.	4d/)	.
4D\	.	4r	.	4r	.	4d/	.
4r	.	4F#/	.	4c/	.	8d/L	.
.	.	.	.	.	.	8d/J	.
=20	=20	=20	=20	=20	=20	=20	=20
4G\	.	4r	.	4r	.	(4d/	.
4r	.	4G/	.	4B/	.	4G/)	.
2r	.	2r	.	(8gg\L	f	(8bb\L	f
.	.	.	.	8ff#\)	.	8aa\)	.
.	.	.	.	8ee'\	.	8gg'\	.
.	.	.	.	8dd'\J	.	8ff#'\J	.
=21	=21	=21	=21	=21	=21	=21	=21
1r	.	1r	.	(8ee\L	.	(8gg\L	.
.	.	.	.	8dd\)	.	8ff#\)	.
.	.	.	.	8cc'\	.	8ee'\	.
.	.	.	.	8b'\J	.	8dd'\J	.
.	.	.	.	(8cc\L	.	(8ee\L	.
.	.	.	.	8b\)	.	8dd\)	.
.	.	.	.	8a'\	.	8cc'\	.
.	.	.	.	8g'\J	.	8b'\J	.
=22	=22	=22	=22	=22	=22	=22	=22
1r	.	1r	.	(8a/L	.	(8cc/L	.
.	.	.	.	8g/)	.	8b/)	.
.	.	.	.	8f#'/	.	8a'/	.
.	.	.	.	8e'/J	.	8g'/J	.
.	.	.	.	(8f#/L	.	(8a/L	.
.	.	.	.	8e/)	.	8g/)	.
.	.	.	.	8d'/	.	8f#'/	.
.	.	.	.	8c#'/J	.	8e'/J	.
=23	=23	=23	=23	=23	=23	=23	=23
(2F#\	f	[1d\	f	4d/	.	4d/	.
.	.	.	.	2a/	.	2cc\	.
2G\)	.	.	.	.	.	.	.
.	.	.	.	4gT/	.	4bT\	.
=24	=24	=24	=24	=24	=24	=24	=24
4D\	.	4d\]	.	4f#/	.	4a/	.
4r	.	4r	.	4r	.	4r	.
4G\	p	4B/	p	2r	.	4dd\	p
4G\	.	4B/	.	.	.	4dd\	.
=25	=25	=25	=25	=25	=25	=25	=25
!	!	! 16cP/	!	!	!	! 16eeP/	!
2G\	.	4Bp/	.	2r	.	4ddp\	.
.	.	8A/L	.	.	.	8cc\L	.
.	.	8G/J	.	.	.	8b\J	.
4C/	.	4c\	.	4g/	p	4ee\	.
4C/	.	4c\	.	4g/	.	4ee\	.
=26	=26	=26	=26	=26	=26	=26	=26
!	!	!	!	! 16aP/	!	!	!
2C/	.	2c\	.	4gp/	.	2ee\	.
.	.	.	.	8f#/L	.	.	.
.	.	.	.	8e/J	.	.	.
4AA/	.	4e\	.	4a/	.	4cc\	.
4AA/	.	4e\	.	4a/	.	4cc\	.
=27	=27	=27	=27	=27	=27	=27	=27
!	!	! 16f#P/	!	!	!	! 16ddP/	!
2AA/	.	4ep\	.	2a/	.	4ccp\	.
.	.	8d\L	.	.	.	8b/L	.
.	.	8c\J	.	.	.	8a/J	.
4D\	.	4F#/	.	4c/	.	4a/	.
4D\	.	4F#/	.	4c/	.	4a/	.
=28	=28	=28	=28	=28	=28	=28	=28
!	!	!	!	! 16dP/	!	! 16bP/	!
2D\	.	2F#/	.	4cp/	.	4ap/	.
.	.	.	.	8B/L	.	8g/L	.
.	.	.	.	8A/J	.	8f#/J	.
4G\	f	4B/	f	4G/	f	4dd\	f
4G\	.	4B/	.	4G/	.	4dd\	.
=29	=29	=29	=29	=29	=29	=29	=29
!	!	! 16cP/	!	!	!	! 16eeP/	!
2G\	.	4Bp/	.	2G/	.	4ddp\	.
.	.	8A/L	.	.	.	8cc\L	.
.	.	8G/J	.	.	.	8b\J	.
2r	.	4g\	.	8cc\L	.	8ee\L	.
.	.	.	.	8b\	.	8dd\	.
.	.	4r	.	8cc\	.	8ee\	.
.	.	.	.	8a\J	.	8ff#\J	.
=30	=30	=30	=30	=30	=30	=30	=30
1r	.	1r	.	8b/L	.	8gg\L	.
.	.	.	.	8a/	.	8ff#\	.
.	.	.	.	8b/	.	8gg\	.
.	.	.	.	8f#/J	.	8aa\J	.
.	.	.	.	8g/L	.	8bb\L	.
.	.	.	.	8f#/	.	8aa\	.
.	.	.	.	8g/	.	8bb\	.
.	.	.	.	8a/J	.	8ccc\J	.
=31	=31	=31	=31	=31	=31	=31	=31
2r	.	2r	.	4b\	.	4ddd\	.
.	.	.	.	4r	.	4r	.
2D\	.	2cT\	.	2f#t/	.	2aT/	.
=32	=32	=32	=32	=32	=32	=32	=32
4GG/	.	4B/	.	4g/	.	4g/	.
4r	.	4r	.	4r	.	4r	.
=:!!:	=:!!:	=:!!:	=:!!:	=:!!:	=:!!:	=:!!:	=:!!:
*>C	*	*>C	*	*>C	*	*>C	*
2r	.	2r	.	2g/	p	4g/	p
.	.	.	.	.	.	8g/L	.
.	.	.	.	.	.	8g/J	.
2ryy	.	2ryy	.	2ryy	.	2ryy	.
=33	=33	=33	=33	=33	=33	=33	=33
2r	.	1r	.	2g/	.	(4b-/	.
.	.	.	.	.	.	4a/)	.
(2D\	p	.	.	2f#/	.	4a/	.
.	.	.	.	.	.	8a/L	.
.	.	.	.	.	.	8a/J	.
=34	=34	=34	=34	=34	=34	=34	=34
2GG/)	.	2d\	p	2g/	.	(4cc\	.
.	.	.	.	.	.	4b-\)	.
2r	.	[2b-\	.	2r	.	4b-\	.
.	.	.	.	.	.	8b-\L	.
.	.	.	.	.	.	8b-\J	.
=35	=35	=35	=35	=35	=35	=35	=35
2r	.	2b-\]	.	1r	.	(4dd\	.
.	.	.	.	.	.	4cc\)	.
2Fn\	.	2a\	.	.	.	4cc\	.
.	.	.	.	.	.	8cc\L	.
.	.	.	.	.	.	8cc\J	.
=36	=36	=36	=36	=36	=36	=36	=36
2BB-/	.	2b-\	.	2fn/	.	(4ee-\	.
.	.	.	.	.	.	4dd\)	.
2r	.	2r	.	[2dd\	.	4dd\	.
.	.	.	.	.	.	8dd\L	.
.	.	.	.	.	.	8dd\J	.
=37	=37	=37	=37	=37	=37	=37	=37
2r	.	1r	.	2dd\]	.	(4ffnx\	.
.	.	.	.	.	.	4een\)	.
2A\	.	.	.	2cc#\	.	4ee\	.
.	.	.	.	.	.	8ee\L	.
.	.	.	.	.	.	8ee\J	.
=38	=38	=38	=38	=38	=38	=38	=38
2D\	.	2a\	.	2dd\	.	(4gg\	.
.	.	.	.	.	.	4ffnx\)	.
2D\	.	4A/	.	4fnx/	.	2r	.
.	.	4A/	.	4fx/	.	.	.
=39	=39	=39	=39	=39	=39	=39	=39
!	!	! 16AP/	!	! 16fnxP/	!	!	!
2GG/	.	4Gp/	.	4exp/	.	1r	.
.	.	(2Fn/	.	(2d/	.	.	.
2AA/	.	.	.	.	.	.	.
.	.	4E/)	.	4c#/)	.	.	.
=40	=40	=40	=40	=40	=40	=40	=40
2DD/	.	2D/	.	2d/	.	2r	.
=:|!	=:|!	=:|!	=:|!	=:|!	=:|!	=:|!	=:|!
*>D	*	*>D	*	*>D	*	*>D	*
4d\	f	4d\	f	4dd\	f	4dd\	f
8d\L	.	8d\L	.	8dd\L	.	8dd\L	.
8d\J	.	8d\J	.	8dd\J	.	8dd\J	.
2ryy	.	2ryy	.	2ryy	.	2ryy	.
=41	=41	=41	=41	=41	=41	=41	=41
(4fn\	.	(4fn\	.	(4ffn\	.	(4ffn\	.
4Bn\)	.	4Bn/)	.	4bn\)	.	4bn\)	.
4B\	.	4B/	.	4b\	.	4b\	.
8B\L	.	8B/L	.	8b\L	.	8b\L	.
8B\J	.	8B/J	.	8b\J	.	8b\J	.
=42	=42	=42	=42	=42	=42	=42	=42
(4d\	.	(4d\	.	(4dd\	.	(4dd\	.
4c\)	.	4c\)	.	4cc\)	.	4cc\)	.
4c\	.	4c\	.	4cc\	.	4cc\	.
8c\L	.	8c\L	.	8cc\L	.	8cc\L	.
8c\J	.	8c\J	.	8cc\J	.	8cc\J	.
=43	=43	=43	=43	=43	=43	=43	=43
(4e-\	.	(4e-\	.	(4ee-\	.	(4ee-\	.
4A\)	.	4A/)	.	4a/)	.	4a/)	.
4A\	.	4A/	.	4a/	.	4a/	.
8A\L	.	8A/L	.	8a/L	.	8a/L	.
8A\J	.	8A/J	.	8a/J	.	8a/J	.
=44	=44	=44	=44	=44	=44	=44	=44
(4c\	.	(4c/	.	(4cc\	.	(4cc\	.
4B-\)	.	4B-/)	.	4b-\)	.	4b-\)	.
2E-\	p	2r	.	4G/	p	[2g/	p
.	.	.	.	8G/L	.	.	.
.	.	.	.	8G/J	.	.	.
=45	=45	=45	=45	=45	=45	=45	=45
2C/	.	2r	.	(4B-/	.	2g/]	.
.	.	.	.	4A/)	.	.	.
2D\	.	[2a\	p	4A/	.	2f#/	.
.	.	.	.	8A/L	.	.	.
.	.	.	.	8A/J	.	.	.
=46	=46	=46	=46	=46	=46	=46	=46
2GG/	.	2a\]	.	(4c/	.	2r	.
.	.	.	.	4B-/)	.	.	.
2G\	.	2g\	.	4B-/	.	[2b-\	.
.	.	.	.	8B-/L	.	.	.
.	.	.	.	8B-/J	.	.	.
=47	=47	=47	=47	=47	=47	=47	=47
2E-\	.	2r	.	(4d/	.	2b-\]	.
.	.	.	.	4c/)	.	.	.
2Fn\	.	[2cc\	.	4c/	.	2a/	.
.	.	.	.	8c/L	.	.	.
.	.	.	.	8c/J	.	.	.
=48	=48	=48	=48	=48	=48	=48	=48
2BB-/	.	2cc\]	.	(4e-/	.	2r	.
.	.	.	.	4d/)	.	.	.
2r	.	4b-\	.	4dd\	.	4gg\	.
.	.	8b-\L	.	8dd\L	.	8gg\L	.
.	.	8b-\J	.	8dd\J	.	8gg\J	.
=49	=49	=49	=49	=49	=49	=49	=49
1r	.	2a\	.	2cc\	.	(4gg\	.
.	.	.	.	.	.	4ff#\)	.
.	.	4g\	.	4b-\	.	4ee-\	.
.	.	8g\L	.	8b-\L	.	8ee-\L	.
.	.	8g\J	.	8b-\J	.	8ee-\J	.
=50	=50	=50	=50	=50	=50	=50	=50
2r	.	2f#\	.	2a/	.	(4ee-\	.
.	.	.	.	.	.	4dd\)	.
4F#\	f	4d\	f	4a/	f	4cc\	f
8F#\L	.	8d\L	.	8a/L	.	8cc\L	.
8F#\J	.	8d\J	.	8a/J	.	8cc\J	.
=51	=51	=51	=51	=51	=51	=51	=51
!	!	!	!	!	!	! 16ccP/	!
2G\	.	2d\	.	2g/	.	4b-p\	.
.	.	.	.	.	.	8a/L	.
.	.	.	.	.	.	8g/J	.
!	!	!	!	!	!	! 16ccP/	!
2E-\	.	2G/	.	2c#/	.	4b-p\	.
.	.	.	.	.	.	8a/L	.
.	.	.	.	.	.	8g/J	.
=52	=52	=52	=52	=52	=52	=52	=52
2D\	.	4A/	.	4d/	.	4f#/	.
.	.	(2d\	.	(2f#/	.	(2a/	.
2DD/	.	.	.	.	.	.	.
.	.	4f#\)	.	4a/)	.	4dd\)	.
=53	=53	=53	=53	=53	=53	=53	=53
1GG/	.	1d\	.	1gT/	.	1b-T\	.
=54	=54	=54	=54	=54	=54	=54	=54
2DD/	.	2d\	.	2f#/	.	2a/	.
! Da Capo ma senza replicarlo,	!	! Da Capo ma senza replicarlo,	!	! Da Capo ma senza replicarlo,	!	! Da Capo ma senza replicarlo,	!
! poi segue la Coda all'altra parte.	!	! poi segue la Coda all'altra parte.	!	! poi segue la Coda all'altra parte.	!	! poi segue la Coda all'altra parte.	!
=1||;	=1||;	=1||;	=1||;	=1||;	=1||;	=||;?	=||;?
!	!	!	!	!	!	!  Double bar added to mark the beginning of the coda and position the fermata.	!
4G\	f	4B/	f	2r	.	4dd\	f
4G\	.	4B/	.	.	.	4dd\	.
2ryy	.	2ryy	.	2ryy	.	2ryy	.
=55	=55	=55	=55	=55	=55	=55	=55
!	!	! 16cP/	!	!	!	! 16eeP/	!
2G\	.	4Bp/	.	2r	.	4ddp\	.
.	.	8A/L	.	.	.	8cc\L	.
.	.	8G/J	.	.	.	8b\J	.
4C/	.	4c\	.	4g/	f	4ee\	.
4C/	.	4c\	.	4g/	.	4ee\	.
=56	=56	=56	=56	=56	=56	=56	=56
!	!	!	!	! 16aP/	!	!	!
2C/	.	2c\	.	4gp/	.	2ee\	.
.	.	.	.	8f#/L	.	.	.
.	.	.	.	8e/J	.	.	.
4AA/	.	4e\	.	4a/	.	4cc\	.
4AA/	.	4e\	.	4a/	.	4cc\	.
=57	=57	=57	=57	=57	=57	=57	=57
!	!	! 16f#P/	!	!	!	! 16ddP/	!
2AA/	.	4ep\	.	2a/	.	4ccp\	.
.	.	8d\L	.	.	.	8b/L	.
.	.	8c\J	.	.	.	8a/J	.
4D\	.	4F#/	.	4c/	.	4a/	.
4D\	.	4F#/	.	4c/	.	4a/	.
=58	=58	=58	=58	=58	=58	=58	=58
!	!	!	!	! 16dP/	!	! 16bP/	!
2D\	.	2F#/	.	4cp/	.	4ap/	.
.	.	.	.	8B/L	.	8g/L	.
.	.	.	.	8A/J	.	8f#/J	.
4G\	.	4B/	.	4G/	.	4dd\	.
4G\	.	4B/	.	4G/	.	4dd\	.
=59	=59	=59	=59	=59	=59	=59	=59
!	!	! 16cP/	!	!	!	! 16eeP/	!
2G\	.	4Bp/	.	2G/	.	4ddp\	.
.	.	8A/L	.	.	.	8cc\L	.
.	.	8G/J	.	.	.	8b\J	.
2r	.	4g\	.	8cc\L	.	8ee\L	.
.	.	.	.	8b\	.	8dd\	.
.	.	4r	.	8cc\	.	8ee\	.
.	.	.	.	8a\J	.	8ff#\J	.
=60	=60	=60	=60	=60	=60	=60	=60
1r	.	1r	.	8b/L	.	8gg\L	.
.	.	.	.	8a/	.	8ff#\	.
.	.	.	.	8b/	.	8gg\	.
.	.	.	.	8f#/J	.	8aa\J	.
.	.	.	.	8g/L	.	8bb\L	.
.	.	.	.	8f#/	.	8aa\	.
.	.	.	.	8g/	.	8bb\	.
.	.	.	.	8a/J	.	8ccc\J	.
=61	=61	=61	=61	=61	=61	=61	=61
2r	.	2r	.	4b\	.	4ddd\	.
.	.	.	.	4r	.	4r	.
8c\L	.	8e\L	.	2r	.	2r	.
8B\	.	8d\	.	.	.	.	.
8c\	.	8e\	.	.	.	.	.
8A\J	.	8f#\J	.	.	.	.	.
=62	=62	=62	=62	=62	=62	=62	=62
8B\L	.	8g\L	.	1r	.	1r	.
8A\	.	8f#\	.	.	.	.	.
8B\	.	8g\	.	.	.	.	.
8F#\J	.	8a\J	.	.	.	.	.
8G\L	.	8b\L	.	.	.	.	.
8F#\	.	8a\	.	.	.	.	.
8G\	.	8b\	.	.	.	.	.
8A\J	.	8cc\J	.	.	.	.	.
=63	=63	=63	=63	=63	=63	=63	=63
4B\	.	4dd\	.	2r	.	2r	.
4r	.	4r	.	.	.	.	.
8c\L	.	8cc\L	.	8e/L	.	8ee\L	.
8B\	.	8b\	.	8d/	.	8dd\	.
8c\	.	8cc\	.	8e/	.	8ee\	.
8A\J	.	8a\J	.	8f#/J	.	8ff#\J	.
=64	=64	=64	=64	=64	=64	=64	=64
8B\L	.	8b\L	.	8g/L	.	8gg\L	.
8A\	.	8a\	.	8f#/	.	8ff#\	.
8B\	.	8b\	.	8g/	.	8gg\	.
8F#\J	.	8f#\J	.	8a/J	.	8aa\J	.
8G\L	.	8g\L	.	8b\L	.	8bb\L	.
8F#\	.	8f#\	.	8a\	.	8aa\	.
8G\	.	8g\	.	8b\	.	8bb\	.
8A\J	.	8a\J	.	8cc\J	.	8ccc\J	.
=65	=65	=65	=65	=65	=65	=65	=65
4B\	.	4b\	.	4dd\	.	4ddd\	.
4r	.	4r	.	4r	.	4r	.
2r	.	2r	.	2r	.	2r	.
=66	=66	=66	=66	=66	=66	=66	=66
(1D\	p	(1cT\	p	(1f#t/	p	(1aT/	p
=67	=67	=67	=67	=67	=67	=67	=67
4GG/)	.	4B/)	.	4g/)	.	4g/)	.
4r	.	4r	.	4r	.	4r	.
2r	.	2r	.	2r	.	2r	.
==|!	==|!	==|!	==|!	==|!	==|!	==|!	==|!
*-	*-	*-	*-	*-	*-	*-	*-
!!!RWG: Appoggiaturas of spine 'Violino I' need manual editing in measures: 1, 3, 4, 5, 9, 9, 13, 13, 15, 15, 25, 27, 28, 29, 51, 51, 55, 57, 58, 59
!!!RWG: Appoggiaturas of spine 'Violino II' need manual editing in measures: 2, 4, 9, 9, 13, 13, 15, 15, 26, 28, 39, 56, 58
!!!RWG: Appoggiaturas of spine 'Viola' need manual editing in measures: 1, 3, 5, 25, 27, 29, 39, 55, 57, 59
!!!RWG: Key is interpreted using the Humdrum key tool.
!!!AFT: stage2
!!!END: 1993/08/17
!!!KEY: 2830655866
!!!EMD: Converted from MuseData to Humdrum Dec 16, 2000, by Andreas Kornstaedt using muse2kern.
!!!EMD: Manual editing by Craig Sapp, Nov 2001
